X:5045
T:The Slievemore Polka
M:2/4
R:Polka
L:1/8
C:Aidan Crossey
K:G
|:DB G>A|BG BG|FA D>A|BG BG|
DB G>A|BG dB|AB/c/ BA|GD B,D:||
|:BG dG|eG dG|c>A FA|EA DA|
BG dG|eG dG|c>A FA|G2 G2:||
